images/icons/generic-cloud.svg

<svg fill="none" height="24" viewBox="0 0 24 24" width="24" xmlns="http://www.w3.org/2000/svg"><path d="m6 20.4545c-1.65455 0-3.06818-.5727-4.24091-1.7181-1.172726-1.1455-1.75909-2.5455-1.75909-4.2 0-1.4182.427273-2.6819 1.28182-3.7909.85454-1.10914 1.97273-1.81823 3.35454-2.12732.45455-1.67273 1.36364-3.02727 2.72728-4.06363 1.36363-1.03637 2.90906-1.55455 4.63636-1.55455 2.1273 0 3.9318.74091 5.4136 2.22273 1.4819 1.48182 2.2228 3.28636 2.2228 5.41367 1.2545.1454 2.2954.6863 3.1227 1.6227s1.2409 2.0318 1.2409 3.2864c0 1.3636-.4773 2.5227-1.4318 3.4772-.9546.9546-2.1137 1.4318-3.4773 1.4318z" fill="#fff"/></svg>

<svg width="24" height="24" viewBox="0 0 24 24" fill="none" xmlns="http://www.w3.org/2000/svg">
<path d="M6 20.4545C4.34545 20.4545 2.93182 19.8818 1.75909 18.7364C0.586364 17.5909 0 16.1909 0 14.5364C0 13.1182 0.427273 11.8545 1.28182 10.7455C2.13636 9.63636 3.25455 8.92727 4.63636 8.61818C5.09091 6.94545 6 5.59091 7.36364 4.55455C8.72727 3.51818 10.2727 3 12 3C14.1273 3 15.9318 3.74091 17.4136 5.22273C18.8955 6.70455 19.6364 8.50909 19.6364 10.6364C20.8909 10.7818 21.9318 11.3227 22.7591 12.2591C23.5864 13.1955 24 14.2909 24 15.5455C24 16.9091 23.5227 18.0682 22.5682 19.0227C21.6136 19.9773 20.4545 20.4545 19.0909 20.4545H6Z" fill="white"/>
</svg>
